Suru++-Ubuntu/apps/symbolic/pokerth-symbolic.svg

<svg width="16" height="16" version="1" xmlns="http://www.w3.org/2000/svg">
 <path d="m8 3.3e-7c-0.589478 0-1.161739 0.067624-1.714286 0.1875v3.6741072l-2.598214-2.5993303c-0.9745809 0.6234034-1.8018197 1.4506422-2.4252232 2.4252231l2.5993303 2.5982143h-3.6741071c-0.1198757 0.5525463-0.1875 1.124808-0.1875 1.7142857s0.0676243 1.1617394 0.1875 1.7142857h3.6741071l-2.5993303 2.598214c0.6234035 0.974581 1.4506423 1.80182 2.4252232 2.425223l2.598214-2.59933v3.674107c0.552547 0.119875 1.124808 0.1875 1.714286 0.1875s1.161739-0.06762 1.714286-0.1875v-3.674107l2.598214 2.59933c0.974581-0.623403 1.80182-1.450642 2.425223-2.425223l-2.59933-2.598214h3.674107c0.119875-0.5525463 0.1875-1.124808 0.1875-1.7142857s-0.06762-1.1617394-0.1875-1.7142857h-3.674107l2.59933-2.5982143c-0.623403-0.9745809-1.450642-1.8018197-2.425223-2.4252231l-2.598214 2.5993303v-3.6741072c-0.552547-0.1198757-1.124808-0.1875-1.714286-0.1875zm-3.7142857 5.1428571h3.4285717v1.1428572h-1.142857v4.5714284h-1.1428576v-4.5714284h-1.1428571zm3.9999997 0h1.142857v2.2857143h1.142858v-2.2857143h1.142857v5.7142856h-1.142857v-2.2857141h-1.142858v2.2857141h-1.142857v-3.4285713z" style="fill:#808080"/>
</svg>

<svg xmlns="http://www.w3.org/2000/svg" width="16" height="16" version="1">
 <path style="fill:#808080" d="m 8,3.3e-7 c -0.589478,0 -1.161739,0.067624 -1.714286,0.1875 V 3.8616075 L 3.6875,1.2622772 C 2.7129191,1.8856806 1.8856803,2.7129194 1.2622768,3.6875003 L 3.8616071,6.2857146 H 0.1875 C 0.0676243,6.8382609 0,7.4105226 0,8.0000003 0,8.589478 0.0676243,9.1617397 0.1875,9.714286 H 3.8616071 L 1.2622768,12.3125 c 0.6234035,0.974581 1.4506423,1.80182 2.4252232,2.425223 l 2.598214,-2.59933 V 15.8125 C 6.838261,15.932375 7.410522,16 8,16 8.589478,16 9.161739,15.93238 9.714286,15.8125 v -3.674107 l 2.598214,2.59933 C 13.287081,14.11432 14.11432,13.287081 14.737723,12.3125 L 12.138393,9.714286 H 15.8125 C 15.932375,9.1617397 16,8.589478 16,8.0000003 16,7.4105226 15.93238,6.8382609 15.8125,6.2857146 h -3.674107 l 2.59933,-2.5982143 C 14.11432,2.7129194 13.287081,1.8856806 12.3125,1.2622772 L 9.714286,3.8616075 V 0.18750033 C 9.161739,0.06762463 8.589478,3.3e-7 8,3.3e-7 Z M 4.2857143,5.1428574 H 5.4285714 6.571429 7.714286 V 6.2857146 H 6.571429 V 10.857143 H 5.4285714 V 6.2857146 H 4.2857143 Z m 3.9999997,0 h 1.142857 v 2.2857143 h 1.142858 V 5.1428574 h 1.142857 V 7.4285717 8.5714289 10.857143 H 10.571429 V 8.5714289 H 9.428571 V 10.857143 H 8.285714 V 8.5714289 7.4285717 Z"/>
</svg>
